X: 14224
T: Funk The Cajun Blues
R: reel
M: 4/4
K: Aminor
|:A,2 E2 DE A,2|GDE c2 DEG|A,2 E2 DE A,2|G,DD^G, DDG,D|
A,2 E2 DE A,2|GDE c2 DEG|FAAF AA^FA|GAAG AA^GA:|
|:ee^de cA (3AAA|ee^de c2 c=d|ee^de cA (3AAA|cABc A2 AA|
^GAAA ^deea|eeae ee^de|cA (3AAA ^GAAe|^dAA^G A A3:|
|:[K:A] EFAB cAfc|ecBc BAFA|EFAB cAfc|ecBc A2 (3aaa|
afea fecf|ecBc BAFA|EFAB cAfc|ecBc A4:|

